X: 10805
T: Dragon's Teeth
R: reel
M: 4/4
K: Dminor
a3 g f2 fg|fe d2 d2 ef|gf e2 e2 gf|e2 ef g2 fg|
a3 g f2 fg|fe d2 d2 ag|fe d2 e2 a2|d4 d4:|
e2 g2 c3 d|e3 f g2 fe|f3 e f2 g2|a4 g4|
a3 g f2 fg|fe d2 d2 ag|fe g2 e2 a2|d4 d4:|

